X:1
T:Johnny, Johnny, Don't Get Drunk
L:1/8
M:C|
I:linebreak $
K:D
V:1 treble
V:1
"D" fa- a2 a2 g2 | fdec d3 A | "G"BABc dBAG | "A"FE- E2 E4 |$
 "D"fa- a2 a2 g2 | fcec c3 A | "G"BABc dBAG |  "A"FDEF "D"D4 ::$
 "D"FA- A2 A4 | FGAB A3 A | "G"BABc dBAG | "A"FE- E2 E4 |$
 "D"FA- A2 A2 d2 | "G"BABc "D"d3 A |  "G"BABc dBAG | "A"FDEF "D"D4 :|
